icons/hadoop/hadoop-plain.svg

<?xml version="1.0" encoding="UTF-8"?>
<svg xmlns="http://www.w3.org/2000/svg" xmlns:xlink="http://www.w3.org/1999/xlink" width="128px" height="128px" viewBox="0 0 128 128" version="1.1">
<g id="surface1">
<path style=" stroke:none;fill-rule:nonzero;fill:rgb(0%,0%,0%);fill-opacity:1;" d="M 73.5 15 C 66.800781 16.398438 60.699219 19.601562 56.5 23.898438 C 54.398438 26.199219 52 28 51.300781 28 C 50.601562 28 48.5 29.398438 46.601562 31.101562 C 44.300781 33.101562 40.898438 34.699219 37 35.601562 C 26.5 38 18.300781 43.398438 13.398438 51.199219 C 12.101562 53.199219 10.199219 55.398438 9.101562 55.898438 C 7.5 56.800781 7.300781 56.699219 7.699219 54.898438 C 8.101562 53.699219 8.800781 53.101562 9.699219 53.398438 C 10.800781 53.800781 11 52.898438 10.800781 49 C 10.5 43.300781 9.5 42.898438 5.101562 46.601562 C 0.199219 50.699219 -0.398438 52.398438 1.601562 57.601562 C 2.898438 61 3.898438 62.199219 5.898438 62.601562 C 8.398438 63.101562 8.5 63.5 8.699219 70.601562 C 9 77.898438 8.898438 78.101562 5.398438 82 C 2.300781 85.5 1.898438 86.398438 2.398438 89.398438 C 3.199219 93.398438 9.800781 100 13.101562 100 C 14.898438 100 15.199219 100.398438 14.699219 103 C 13.898438 106.601562 15.601562 108.5 20.800781 110 C 31.800781 113.101562 36 112.199219 36 106.699219 C 36 104.898438 36.699219 102.601562 37.5 101.601562 C 38.300781 100.5 39 98.601562 39 97.300781 C 39 95 40.398438 94.398438 43.199219 95.5 C 44.199219 95.898438 44.5 97.101562 44.199219 99 C 43.699219 102.601562 48.800781 111.101562 52.5 112.800781 C 55.800781 114.300781 57.601562 113.5 62.800781 108.601562 L 67 104.601562 L 74.601562 104.898438 C 84.699219 105.300781 85.300781 104.699219 84.398438 95.601562 C 84 91.699219 83.101562 86.800781 82.398438 84.601562 C 80.5 79.398438 80.5 79.398438 84.5 82.898438 C 86.5 84.601562 89.101562 86 90.300781 86 C 93.699219 86 99 82.300781 100.101562 79.199219 C 101 76.699219 101.398438 76.5 106.800781 76.398438 C 122 76.300781 130.199219 63.5 127.199219 44.5 C 125.800781 35.300781 123.800781 31.199219 120.398438 30.398438 C 118.300781 29.898438 117.199219 30.398438 114.398438 33.5 L 111 37.300781 L 108 33.199219 C 106.398438 30.898438 104.199219 28.601562 103.101562 28 C 102 27.5 99 25.199219 96.5 23 C 88.199219 15.898438 81.300781 13.5 73.5 15 Z M 86.398438 19 C 88.699219 20.101562 92.398438 22.800781 94.800781 24.898438 C 97.199219 27.101562 100 29.199219 101.101562 29.5 C 102.699219 30 107 34.898438 107 36.300781 C 107 36.601562 106 37 104.800781 37.199219 C 102.300781 37.601562 101.101562 40 103.5 40 C 104.398438 40 104.898438 40.398438 104.601562 40.898438 C 104.300781 41.398438 105 42.101562 106.300781 42.5 C 108.300781 43.199219 108.199219 43.300781 105.300781 43.699219 C 103.601562 43.898438 101.601562 44.800781 100.800781 45.699219 C 99.601562 47.199219 99.699219 47.199219 101.800781 46.101562 C 104 44.898438 104.101562 45 103.5 47.199219 C 101.898438 52 102 52.398438 103.601562 49.199219 C 106 44.800781 108 45 108.101562 49.699219 L 108.199219 53.5 L 109.101562 50.5 C 109.601562 48.800781 109.800781 45.800781 109.398438 43.800781 C 108.898438 40.699219 109.199219 40 111.199219 39 C 112.5 38.300781 114.699219 36.601562 116.199219 35.199219 C 117.699219 33.800781 119.5 33 120.398438 33.300781 C 122.601562 34.199219 125 43.398438 125 51.5 C 125 57.300781 124.5 59.601562 122.300781 64 C 120.699219 67 118.300781 70.300781 116.699219 71.398438 C 112.699219 74.398438 103.101562 74.699219 95.5 72.101562 C 92.199219 71 89.398438 70.300781 89.300781 70.398438 C 89.101562 70.601562 88.898438 73.101562 88.699219 76.101562 C 88.5 80.800781 88.699219 81.5 90.5 81.699219 L 92.5 82 L 90.5 81.101562 C 88.800781 80.398438 89 80.199219 92 79.898438 C 94.5 79.601562 95.800781 78.800781 96.5 77.199219 C 97.800781 74.300781 99.300781 74.300781 98.5 77.199219 C 96.699219 83.300781 90 84.699219 84.800781 80.101562 C 83 78.601562 79.5 76.300781 77 75.101562 L 72.5 72.898438 L 75.398438 75.398438 C 77.898438 77.5 78.199219 78.300781 77.699219 81.601562 C 76.5 89.101562 71.398438 97.300781 64.300781 103.699219 C 56.101562 110.898438 55.601562 111.199219 53.601562 110.398438 C 51.601562 109.699219 47 102 47 99.601562 C 47 98.699219 48.601562 97.199219 50.5 96.300781 C 53.101562 95.101562 54 94 54 92.199219 C 54 90.101562 53.898438 90 52.398438 91.398438 C 50.101562 93.800781 38.300781 93.699219 37.699219 91.199219 C 37.398438 90.300781 37.199219 91.199219 37.101562 93.300781 C 37.101562 95.398438 36.101562 98.800781 35 101 C 33.898438 103.199219 33 105.800781 33 107 C 33 108.5 32.300781 109 30.398438 109 C 26.199219 109 18.898438 106.800781 18.300781 105.300781 C 18 104.601562 18.300781 101.898438 18.898438 99.398438 C 20 95.199219 19.898438 94.5 17.601562 90.601562 C 11.898438 80.800781 9.699219 69.199219 12 60.800781 C 13.5 55.5 18.800781 48.101562 23.800781 44.300781 C 28 41.101562 38.5 37.199219 39.699219 38.398438 C 40 38.699219 38.601562 40.800781 36.5 43.101562 C 34.5 45.398438 31.699219 49.699219 30.300781 52.601562 L 27.898438 58 L 31.300781 63.601562 C 34.101562 68 34.699219 69.898438 34.300781 72.398438 C 33.898438 75.101562 34.300781 76.101562 37 78.300781 C 41 81.699219 44.601562 81.699219 51.300781 78.300781 C 54.199219 76.898438 58.300781 75.101562 60.5 74.5 C 63.300781 73.601562 64.699219 72.601562 65.101562 70.898438 C 66.199219 67 66 59 64.5 51 L 63.101562 43.5 L 63.601562 55.699219 C 64.199219 67.898438 63.398438 72 60.699219 72 C 60 72 56.199219 73.601562 52.300781 75.5 C 44 79.601562 42.199219 79.800781 38.601562 76.898438 C 35.300781 74.300781 35.300781 72.800781 39 66 L 42 60.5 L 39.199219 63.601562 L 36.398438 66.601562 L 33.699219 62.898438 C 32.199219 60.898438 31 58.398438 31 57.601562 C 31 54.398438 34.898438 48.398438 42.398438 39.800781 C 50 31.199219 53 29.199219 59.5 28.898438 C 61.199219 28.800781 61.199219 28.699219 59.199219 28.199219 L 56.898438 27.5 L 59 25.300781 C 62.800781 21.199219 72.398438 17.199219 78.898438 17.101562 C 80.800781 17 84.199219 17.898438 86.398438 19 Z M 6 53.5 C 4.601562 57.699219 5.398438 59.398438 8.601562 58.601562 C 10.398438 58.101562 10.800781 58.300781 10.398438 59.5 C 9.300781 62.398438 5.5 61.199219 3.699219 57.398438 C 1.898438 53.800781 2.101562 52.898438 4.898438 49.699219 C 6.898438 47.300781 7.5 49.101562 6 53.5 Z M 17 95.601562 C 17 98.300781 11.898438 97.101562 8.398438 93.601562 C 4.300781 89.5 4.199219 87.699219 7.800781 83.601562 L 10.5 80.398438 L 13.800781 87.300781 C 15.5 91.199219 17 94.898438 17 95.601562 Z M 81.300781 95.5 L 81.5 102.5 L 78.101562 102.800781 C 76.199219 103 73.699219 102.898438 72.398438 102.601562 L 70.101562 102 L 72.898438 97.699219 C 74.398438 95.398438 76.5 91.300781 77.5 88.601562 C 79.199219 84.101562 79.398438 83.898438 80.300781 86.101562 C 80.800781 87.398438 81.300781 91.601562 81.300781 95.5 Z M 81.300781 95.5 "/>
<path style=" stroke:none;fill-rule:nonzero;fill:rgb(0%,0%,0%);fill-opacity:1;" d="M 55.398438 34.101562 C 53.199219 34.699219 51.800781 36.101562 50.5 39 C 49.5 41.199219 49 43.300781 49.300781 43.699219 C 49.699219 44 50 43.601562 50 42.800781 C 50 41.898438 50.898438 40.199219 52 38.898438 C 53.800781 36.601562 53.898438 36.601562 54 38.5 C 54.101562 40.300781 54.199219 40.199219 55.5 38 C 56.199219 36.601562 58.101562 35 59.699219 34.300781 C 61.800781 33.398438 62 33.101562 60.5 33.101562 C 59.398438 33.199219 57.101562 33.601562 55.398438 34.101562 Z M 55.398438 34.101562 "/>
<path style=" stroke:none;fill-rule:nonzero;fill:rgb(0%,0%,0%);fill-opacity:1;" d="M 77 35 C 75.300781 36.699219 74.300781 39 75.300781 39 C 75.5 39 76.601562 37.601562 77.800781 36 C 80.398438 32.601562 79.898438 32.101562 77 35 Z M 77 35 "/>
<path style=" stroke:none;fill-rule:nonzero;fill:rgb(0%,0%,0%);fill-opacity:1;" d="M 117 37.5 C 115.699219 38.898438 113.898438 40 113.101562 40.101562 C 112.101562 40.101562 112 40.398438 112.699219 40.601562 C 114.398438 41.300781 117.699219 39.300781 119 37 C 120.398438 34.300781 119.800781 34.5 117 37.5 Z M 117 37.5 "/>
<path style=" stroke:none;fill-rule:nonzero;fill:rgb(0%,0%,0%);fill-opacity:1;" d="M 82.601562 43.101562 C 79.699219 45.398438 80.5 47.199219 84.101562 46.300781 C 86.300781 45.699219 86.601562 47 84.800781 48.898438 C 84.101562 49.601562 85.101562 49.101562 87.199219 47.800781 C 90.5 45.699219 90.699219 45.300781 89.5 43.5 C 87.699219 40.699219 85.800781 40.601562 82.601562 43.101562 Z M 82.601562 43.101562 "/>
<path style=" stroke:none;fill-rule:nonzero;fill:rgb(0%,0%,0%);fill-opacity:1;" d="M 86.5 68 C 86.199219 68.601562 86.601562 68.699219 87.398438 68.398438 C 89.199219 67.699219 89.5 67 88.101562 67 C 87.5 67 86.800781 67.398438 86.5 68 Z M 86.5 68 "/>
</g>
</svg>

<svg xmlns="http://www.w3.org/2000/svg" viewBox="0 0 128 128"><path d="M73.5 15c-6.7 1.398-12.8 4.602-17 8.898C54.398 26.2 52 28 51.3 28c-.698 0-2.8 1.398-4.698 3.102-2.301 2-5.704 3.597-9.602 4.5C26.5 38 18.3 43.398 13.398 51.199c-1.296 2-3.199 4.2-4.296 4.7-1.602.902-1.801.8-1.403-1 .403-1.2 1.102-1.797 2-1.5 1.102.402 1.301-.5 1.102-4.399-.301-5.7-1.301-6.102-5.7-2.398-4.902 4.097-5.5 5.796-3.5 11 1.297 3.398 2.297 4.597 4.297 5 2.5.5 2.602.898 2.801 8C9 77.898 8.9 78.102 5.4 82c-3.098 3.5-3.5 4.398-3 7.398.8 4 7.402 10.602 10.703 10.602 1.796 0 2.097.398 1.597 3-.8 3.602.903 5.5 6.102 7 11 3.102 15.199 2.2 15.199-3.3 0-1.802.7-4.098 1.5-5.098.8-1.102 1.5-3 1.5-4.301 0-2.301 1.398-2.903 4.2-1.801 1 .398 1.3 1.602 1 3.5-.5 3.602 4.6 12.102 8.3 13.8 3.3 1.5 5.102.7 10.3-4.198l4.2-4 7.602.296c10.097.403 10.699-.199 9.796-9.296-.398-3.903-1.296-8.801-2-11-1.898-5.204-1.898-5.204 2.102-1.704 2 1.704 4.602 3.102 5.8 3.102 3.4 0 8.7-3.7 9.802-6.8.898-2.5 1.296-2.7 6.699-2.802C122 76.301 130.199 63.5 127.199 44.5c-1.398-9.2-3.398-13.3-6.8-14.102-2.098-.5-3.2 0-6 3.102L111 37.3l-3-4.1c-1.602-2.302-3.8-4.598-4.898-5.2C102 27.5 99 25.2 96.5 23c-8.3-7.102-15.2-9.5-23-8Zm12.898 4c2.301 1.102 6 3.8 8.403 5.898 2.398 2.204 5.199 4.301 6.3 4.602C102.7 30 107 34.898 107 36.3c0 .302-1 .7-2.2.9-2.5.402-3.698 2.8-1.3 2.8.898 0 1.398.398 1.102.898-.301.5.398 1.204 1.699 1.602 2 .7 1.898.8-1 1.2-1.7.198-3.7 1.1-4.5 2-1.2 1.5-1.102 1.5 1 .402C104 44.898 104.1 45 103.5 47.199c-1.602 4.801-1.5 5.2.102 2 2.398-4.398 4.398-4.199 4.5.5l.097 3.801.903-3c.5-1.7.699-4.7.296-6.7-.5-3.1-.199-3.8 1.801-4.8 1.301-.7 3.5-2.398 5-3.8 1.5-1.4 3.301-2.2 4.2-1.9 2.203.9 4.601 10.098 4.601 18.2 0 5.8-.5 8.102-2.7 12.5-1.6 3-4 6.3-5.6 7.398-4 3-13.598 3.301-21.2.704-3.3-1.102-6.102-1.801-6.2-1.704-.198.204-.402 2.704-.6 5.704-.2 4.699 0 5.398 1.8 5.597l2 .301-2-.898c-1.7-.704-1.5-.903 1.5-1.204 2.5-.296 3.8-1.097 4.5-2.699 1.3-2.898 2.8-2.898 2 0-1.8 6.102-8.5 7.5-13.7 2.903-1.8-1.5-5.3-3.801-7.8-5l-4.5-2.204 2.898 2.5c2.5 2.102 2.801 2.903 2.301 6.204-1.199 7.5-6.3 15.699-13.398 22.097-8.2 7.2-8.7 7.5-10.7 6.7-2-.7-6.601-8.399-6.601-10.797 0-.903 1.602-2.403 3.5-3.301C53.102 95.1 54 94 54 92.199c0-2.097-.102-2.199-1.602-.8-2.296 2.402-14.097 2.3-14.699-.2-.3-.898-.5 0-.597 2.102 0 2.097-1 5.5-2.102 7.699-1.102 2.2-2 4.8-2 6 0 1.5-.7 2-2.602 2-4.199 0-11.5-2.2-12.097-3.7-.301-.698 0-3.402.597-5.902 1.102-4.199 1-4.898-1.296-8.796C11.898 80.8 9.699 69.199 12 60.8c1.5-5.301 6.8-12.7 11.8-16.5 4.2-3.2 14.7-7.102 15.9-5.903.3.301-1.098 2.403-3.2 4.704-2 2.296-4.8 6.597-6.2 9.5L27.899 58l3.403 5.602c2.8 4.398 3.398 6.296 3 8.796-.403 2.704 0 3.704 2.699 5.903 4 3.398 7.602 3.398 14.3 0 2.9-1.403 7-3.2 9.2-3.801 2.8-.898 4.2-1.898 4.602-3.602C66.199 67 66 59 64.5 51l-1.398-7.5.5 12.2c.597 12.198-.204 16.3-2.903 16.3-.699 0-4.5 1.602-8.398 3.5-8.301 4.102-10.102 4.3-13.7 1.398-3.3-2.597-3.3-4.097.399-10.898l3-5.5-2.8 3.102-2.802 3-2.699-3.704c-1.5-2-2.699-4.5-2.699-5.296 0-3.204 3.898-9.204 11.398-17.801C50 31.199 53 29.199 59.5 28.898c1.7-.097 1.7-.199-.3-.699l-2.302-.699L59 25.3c3.8-4.1 13.398-8.1 19.898-8.198 1.903-.102 5.301.796 7.5 1.898ZM6 53.5c-1.398 4.2-.602 5.898 2.602 5.102 1.796-.5 2.199-.301 1.796.898C9.301 62.398 5.5 61.2 3.7 57.398c-1.8-3.597-1.597-4.5 1.2-7.699 2-2.398 2.601-.597 1.101 3.801Zm11 42.102c0 2.699-5.102 1.5-8.602-2-4.097-4.102-4.199-5.903-.597-10l2.699-3.204 3.3 6.903c1.7 3.898 3.2 7.597 3.2 8.3Zm64.3-.102.2 7-3.398.3c-1.903.2-4.403.098-5.704-.198L70.102 102l2.796-4.3c1.5-2.302 3.602-6.4 4.602-9.098 1.7-4.5 1.898-4.704 2.8-2.5.5 1.296 1 5.5 1 9.398ZM55.398 34.102c-2.199.597-3.597 2-4.898 4.898-1 2.2-1.5 4.3-1.2 4.7.4.3.7-.098.7-.9 0-.902.898-2.6 2-3.902 1.8-2.296 1.898-2.296 2-.398.102 1.8.2 1.7 1.5-.5.7-1.398 2.602-3 4.2-3.7 2.1-.902 2.3-1.198.8-1.198-1.102.097-3.398.5-5.102 1ZM77 35c-1.7 1.7-2.7 4-1.7 4 .2 0 1.302-1.398 2.5-3 2.598-3.398 2.098-3.898-.8-1Zm40 2.5c-1.3 1.398-3.102 2.5-3.898 2.602-1 0-1.102.296-.403.5 1.7.699 5-1.301 6.301-3.602 1.398-2.7.8-2.5-2 .5Zm-34.398 5.602c-2.903 2.296-2.102 4.097 1.5 3.199 2.199-.602 2.5.699.699 2.597-.7.704.3.204 2.398-1.097 3.301-2.102 3.5-2.5 2.301-4.301-1.8-2.8-3.7-2.898-6.898-.398ZM86.5 68c-.3.602.102.7.898.398C89.2 67.7 89.5 67 88.102 67c-.602 0-1.301.398-1.602 1Zm0 0"/></svg>
